Origami/32x32/apps/photocollage.svg

<svg width="32" height="32" version="1" xmlns="http://www.w3.org/2000/svg">
 <path d="m12 12v1.5h-10v16.099609c0 0.7756 0.6247906 1.400391 1.4003906 1.400391h8.5996094 0.5 0.699219 1.800781 13.599609c0.7756 0 1.400391-0.624791 1.400391-1.400391v-16.099609h-15v-1.5h-3z" style="opacity:.2"/>
 <path d="m3.4 2c-0.7756 0-1.4 0.6244-1.4 1.4v8.4h16.8v-9.8h-15.4z" style="fill:#ffc129"/>
 <path d="m18.8 2v9.8h11.2v-8.4c0-0.7756-0.6244-1.4-1.4-1.4h-9.8z" style="fill:#5fb319"/>
 <path d="m13.2 12.5v17.5h15.4c0.7756 0 1.4-0.6244 1.4-1.4v-16.1h-16.8z" style="fill:#e74b4b"/>
 <path d="m2 12.5v16.1c0 0.7756 0.6244 1.4 1.4 1.4h9.1v-17.5h-10.5z" style="fill:#35abe4"/>
 <rect transform="rotate(90)" x="11" y="-15" width="19" height="3" style="fill:#ffffff"/>
 <rect x="2" y="11" width="28" height="3" style="opacity:.2"/>
 <rect x="2" y="10" width="28" height="3" style="fill:#ffffff"/>
 <rect transform="rotate(90)" x="2" y="-20" width="11" height="3" style="fill:#ffffff"/>
 <path d="M 3.4003906 2 C 2.6247906 2 2 2.6247906 2 3.4003906 L 2 4.4003906 C 2 3.6247906 2.6247906 3 3.4003906 3 L 17 3 L 18.800781 3 L 20 3 L 28.599609 3 C 29.375209 3 30 3.6247906 30 4.4003906 L 30 3.4003906 C 30 2.6247906 29.375209 2 28.599609 2 L 20 2 L 18.800781 2 L 17 2 L 3.4003906 2 z" style="fill:#ffffff;opacity:.2"/>
</svg>

<svg xmlns="http://www.w3.org/2000/svg" width="32" height="32" version="1">
 <path style="opacity:0.2" d="m 12,12 0,1.5 -10,0 0,16.099609 C 2,30.375209 2.6247906,31 3.4003906,31 L 12,31 12.5,31 13.199219,31 15,31 28.599609,31 C 29.375209,31 30,30.375209 30,29.599609 L 30,13.5 l -15,0 0,-1.5 -3,0 z"/>
 <path style="fill:#ffc129" d="M 3.4,2 C 2.6244,2 2,2.6244 2,3.4 l 0,8.4 16.8,0 0,-9.8 -15.4,0 z"/>
 <path style="fill:#5fb319" d="m 18.8,2 0,9.8 11.2,0 0,-8.4 C 30,2.6244 29.3756,2 28.6,2 l -9.8,0 z"/>
 <path style="fill:#e74b4b" d="m 13.2,12.5 0,17.5 15.4,0 c 0.7756,0 1.4,-0.6244 1.4,-1.4 l 0,-16.1 -16.8,0 z"/>
 <path style="fill:#35abe4" d="M 2,12.5 2,28.6 C 2,29.3756 2.6244,30 3.4,30 l 9.1,0 0,-17.5 -10.5,0 z"/>
 <rect style="fill:#ffffff" width="19" height="3" x="11" y="-15" transform="matrix(0,1,-1,0,0,0)"/>
 <rect style="opacity:0.2" width="28" height="3" x="2" y="11"/>
 <rect style="fill:#ffffff" width="28" height="3" x="2" y="10"/>
 <rect style="fill:#ffffff" width="11" height="3" x="2" y="-20" transform="matrix(0,1,-1,0,0,0)"/>
 <path style="opacity:0.2;fill:#ffffff" d="M 3.4003906 2 C 2.6247906 2 2 2.6247906 2 3.4003906 L 2 4.4003906 C 2 3.6247906 2.6247906 3 3.4003906 3 L 17 3 L 18.800781 3 L 20 3 L 28.599609 3 C 29.375209 3 30 3.6247906 30 4.4003906 L 30 3.4003906 C 30 2.6247906 29.375209 2 28.599609 2 L 20 2 L 18.800781 2 L 17 2 L 3.4003906 2 z"/>
</svg>
